src/assets/images/cd-icon.svg

<svg fill="none" height="24" viewBox="0 0 24 24" width="24" xmlns="http://www.w3.org/2000/svg" xmlns:xlink="http://www.w3.org/1999/xlink"><clipPath id="a"><path d="m0 0h24v24h-24z"/></clipPath><g clip-path="url(#a)" fill="#fff"><path d="m12 20c2.1217 0 4.1566-.8429 5.6569-2.3431 1.5002-1.5003 2.3431-3.5352 2.3431-5.6569 0-2.12173-.8429-4.15656-2.3431-5.65685-1.5003-1.5003-3.5352-2.34315-5.6569-2.34315-2.12173 0-4.15656.84285-5.65685 2.34315-1.5003 1.50029-2.34315 3.53512-2.34315 5.65685 0 2.1217.84285 4.1566 2.34315 5.6569 1.50029 1.5002 3.53512 2.3431 5.65685 2.3431zm0 2c-5.523 0-10-4.477-10-10s4.477-10 10-10 10 4.477 10 10-4.477 10-10 10zm0-8c.5304 0 1.0391-.2107 1.4142-.5858s.5858-.8838.5858-1.4142-.2107-1.0391-.5858-1.4142-.8838-.5858-1.4142-.5858-1.0391.2107-1.4142.5858-.5858.8838-.5858 1.4142.2107 1.0391.5858 1.4142.8838.5858 1.4142.5858zm0 2c-1.0609 0-2.07828-.4214-2.82843-1.1716-.75014-.7501-1.17157-1.7675-1.17157-2.8284s.42143-2.07828 1.17157-2.82843c.75015-.75014 1.76753-1.17157 2.82843-1.17157s2.0783.42143 2.8284 1.17157c.7502.75015 1.1716 1.76753 1.1716 2.82843s-.4214 2.0783-1.1716 2.8284c-.7501.7502-1.7675 1.1716-2.8284 1.1716z"/><path d="m12.5714 15 .4286 6h-2l.7143-6z"/><path d="m11.4286 9-.4286-6h2l-.7143 6z"/></g></svg>

<svg width="24" height="24" viewBox="0 0 24 24" fill="none" xmlns="http://www.w3.org/2000/svg">
<g clip-path="url(#clip0_4770_6758)">
<path d="M12 20C14.1217 20 16.1566 19.1571 17.6569 17.6569C19.1571 16.1566 20 14.1217 20 12C20 9.87827 19.1571 7.84344 17.6569 6.34315C16.1566 4.84285 14.1217 4 12 4C9.87827 4 7.84344 4.84285 6.34315 6.34315C4.84285 7.84344 4 9.87827 4 12C4 14.1217 4.84285 16.1566 6.34315 17.6569C7.84344 19.1571 9.87827 20 12 20ZM12 22C6.477 22 2 17.523 2 12C2 6.477 6.477 2 12 2C17.523 2 22 6.477 22 12C22 17.523 17.523 22 12 22ZM12 14C12.5304 14 13.0391 13.7893 13.4142 13.4142C13.7893 13.0391 14 12.5304 14 12C14 11.4696 13.7893 10.9609 13.4142 10.5858C13.0391 10.2107 12.5304 10 12 10C11.4696 10 10.9609 10.2107 10.5858 10.5858C10.2107 10.9609 10 11.4696 10 12C10 12.5304 10.2107 13.0391 10.5858 13.4142C10.9609 13.7893 11.4696 14 12 14ZM12 16C10.9391 16 9.92172 15.5786 9.17157 14.8284C8.42143 14.0783 8 13.0609 8 12C8 10.9391 8.42143 9.92172 9.17157 9.17157C9.92172 8.42143 10.9391 8 12 8C13.0609 8 14.0783 8.42143 14.8284 9.17157C15.5786 9.92172 16 10.9391 16 12C16 13.0609 15.5786 14.0783 14.8284 14.8284C14.0783 15.5786 13.0609 16 12 16Z" fill="white"/>
<path d="M12.5714 15L13 21H11L11.7143 15H12.5714Z" fill="white"/>
<path d="M11.4286 9L11 3H13L12.2857 9H11.4286Z" fill="white"/>
</g>
<defs>
<clipPath id="clip0_4770_6758">
<rect width="24" height="24" fill="white"/>
</clipPath>
</defs>
</svg>
